X: 147
M:4/4
L:1/8
Q:160
K:D
|: a|aba g2 f|g3 f2 f/4g/4a/2| fgf e2 d|e3 G2 A|d2 e fdf|g3 f2 f/4g/4a/2|fgf e2 d d3 d2:|

